; generated by PrusaSlicer 2.1.0+win64 on 2019-11-12 at 18:15:07 UTC

; 

; external perimeters extrusion width = 0.45mm
; perimeters extrusion width = 0.45mm
; infill extrusion width = 0.45mm
; solid infill extrusion width = 0.45mm
; top infill extrusion width = 0.40mm
; first layer extrusion width = 0.42mm

; external perimeters extrusion width = 0.45mm
; perimeters extrusion width = 0.45mm
; infill extrusion width = 0.45mm
; solid infill extrusion width = 0.45mm
; top infill extrusion width = 0.40mm
; first layer extrusion width = 0.42mm

; external perimeters extrusion width = 0.45mm
; perimeters extrusion width = 0.45mm
; infill extrusion width = 0.45mm
; solid infill extrusion width = 0.45mm
; top infill extrusion width = 0.40mm
; first layer extrusion width = 0.42mm

; external perimeters extrusion width = 0.45mm
; perimeters extrusion width = 0.45mm
; infill extrusion width = 0.45mm
; solid infill extrusion width = 0.45mm
; top infill extrusion width = 0.40mm
; first layer extrusion width = 0.42mm

; external perimeters extrusion width = 0.45mm
; perimeters extrusion width = 0.45mm
; infill extrusion width = 0.45mm
; solid infill extrusion width = 0.45mm
; top infill extrusion width = 0.40mm
; first layer extrusion width = 0.42mm

M73 P0 R27
M73 Q0 S27
M201 X1000 Y1000 Z1000 E8000 ; sets maximum accelerations, mm/sec^2
M203 X200 Y200 Z12 E120 ; sets maximum feedrates, mm/sec
M204 P1250 R1250 T1250 ; sets acceleration (P, T) and retract acceleration (R), mm/sec^2
M205 X8.00 Y8.00 Z0.40 E1.50 ; sets the jerk limits, mm/sec
M205 S0 T0 ; sets the minimum extruding and travel feed rate, mm/sec
M107
M862.3 P "MK3SMMU2S" ; printer model check
M862.1 P0.4 ; nozzle diameter check
M115 U3.8.1 ; tell printer latest fw version
G90 ; use absolute coordinates
M83 ; extruder relative mode
M104 S215 ; set extruder temp
M140 S60 ; set bed temp
M190 S60 ; wait for bed temp
M109 S215 ; wait for extruder temp
G28 W ; home all without mesh bed level
G80 ; mesh bed leveling
G21 ; set units to millimeters

; Send the filament type to the MMU2.0 unit.
; E stands for extruder number, F stands for filament type (0: default; 1:flex; 2: PVA)
M403 E0 F0
M403 E1 F0
M403 E2 F0
M403 E3 F0
M403 E4 F0


;go outside print area
G1 Y-3.0 F1000.0
G1 Z0.4 F1000.0
; select extruder
T2
; initial load
G1 X55.0 E29.0 F1073.0
M73 Q1 S27
M73 P1 R27
G1 X5.0 E29.0 F1800.0
G1 X55.0 E8.0 F2000.0
G1 Z0.3 F1000.0
G92 E0.0
G1 X240.0 E25.0 F2200.0
G1 Y-2.0 F1000.0
G1 X55.0 E25 F1400.0
G1 Z0.20 F1000.0
G1 X5.0 E4.0 F1000.0
G92 E0.0


M221 S95
G92 E0.0
G21 ; set units to millimeters
G90 ; use absolute coordinates
M83 ; use relative distances for extrusion
T2
M900 K30 ; Filament gcode
G1 Z0.200 F10800.000
;BEFORE_LAYER_CHANGE
G92 E0.0
;0.2


G1 E-0.80000 F2100.00000
G1 Z0.800 F10800.000
G1 Z0.200
;AFTER_LAYER_CHANGE
;0.2
G1 E-2.20000 F2100.00000
G1 Z0.800 F10800.000
G1 X233.000 Y125.000
G1 Z0.200
G1 E3.00000 F2100.00000
;-------------------------------------
; CP WIPE TOWER FIRST LAYER BRIM START
G1  X233.000 Y143.340 E1.0456 F2400
G1  X230.457 Y143.797  F7000
G1  Y124.543 E0.8050 F2100
G1  X169.543 E2.5466
G1  Y143.797 E0.8050
G1  X230.457 E2.5466
G1  X230.914 Y144.254  F7000
G1  Y124.086 E0.8432 F2100
G1  X169.086 E2.5849
G1  Y144.254 E0.8432
G1  X230.914 E2.5849
G1  X231.371 Y144.711  F7000
G1  Y123.629 E0.8814 F2100
G1  X168.629 E2.6231
G1  Y144.711 E0.8814
G1  X231.371 E2.6231
G1  X231.828 Y145.168  F7000
G1  Y123.172 E0.9196 F2100
G1  X168.172 E2.6613
G1  Y145.168 E0.9196
G1  X231.828 E2.6613
G1  X230.000 Y143.340  F7000
G1  X170.000
G1  X230.000
; CP WIPE TOWER FIRST LAYER BRIM END
;-----------------------------------
G1  X229.500 Y125.500  F7200
;--------------------
; CP EMPTY GRID START
; layer #1
G1  X230.000
G1  Y125.000
G1  Y143.340 E0.6970 F1450
G1  X170.000 E2.2804
G1  Y125.000 E0.6970
G1  X230.000 E2.2804
G1  X229.500
G1  Y125.500
G1  Y142.840 E0.6590
G1  X170.500 E2.2424
G1  Y125.500 E0.6590
G1  X229.500 E2.2424
G1  Y142.840
G1  X229.000 Y142.314  E0.0276
G1  X171.000 E2.2044
M73 Q4 S26
G1  Y141.787 E0.0200
G1  X229.000 E2.2044
M73 P4 R26
G1  Y141.261 E0.0200
G1  X171.000 E2.2044
G1  Y140.735 E0.0200
G1  X229.000 E2.2044
G1  Y140.209 E0.0200
G1  X171.000 E2.2044
G1  Y139.682 E0.0200
G1  X229.000 E2.2044
G1  Y139.156 E0.0200
G1  X171.000 E2.2044
G1  Y138.630 E0.0200
G1  X229.000 E2.2044
G1  Y138.104 E0.0200
G1  X171.000 E2.2044
G1  Y137.577 E0.0200
G1  X229.000 E2.2044
G1  Y137.051 E0.0200
G1  X171.000 E2.2044
G1  Y136.525 E0.0200
G1  X229.000 E2.2044
G1  Y135.999 E0.0200
G1  X171.000 E2.2044
G1  Y135.472 E0.0200
G1  X229.000 E2.2044
G1  Y134.946 E0.0200
G1  X171.000 E2.2044
G1  Y134.420 E0.0200
G1  X229.000 E2.2044
G1  Y133.894 E0.0200
G1  X171.000 E2.2044
G1  Y133.367 E0.0200
G1  X229.000 E2.2044
G1  Y132.841 E0.0200
G1  X171.000 E2.2044
G1  Y132.315 E0.0200
G1  X229.000 E2.2044
G1  Y131.789 E0.0200
G1  X171.000 E2.2044
G1  Y131.262 E0.0200
G1  X229.000 E2.2044
G1  Y130.736 E0.0200
G1  X171.000 E2.2044
G1  Y130.210 E0.0200
G1  X229.000 E2.2044
G1  Y129.684 E0.0200
G1  X171.000 E2.2044
G1  Y129.157 E0.0200
G1  X229.000 E2.2044
M73 Q8 S25
G1  Y128.631 E0.0200
G1  X171.000 E2.2044
M73 P8 R25
G1  Y128.105 E0.0200
G1  X229.000 E2.2044
G1  Y127.579 E0.0200
G1  X171.000 E2.2044
G1  Y127.052 E0.0200
G1  X229.000 E2.2044
G1  Y126.526 E0.0200
G1  X171.000 E2.2044
G1  Y126.000 E0.0200
G1  X229.000 E2.2044
G1  X171.000
; CP EMPTY GRID END
;------------------







G1 F8640
G1 X167.709 Y126.000 E-0.76000
G1 E-0.04000 F2100.00000
G1 Z0.800 F10800.000
G1 X144.151 Y112.831
G1 Z0.200
G1 E0.80000 F2100.00000
M204 S1000
G1 F1200
G1 X143.282 Y114.689 E0.06431
G1 X142.216 Y116.476 E0.06525
G1 X140.974 Y118.150 E0.06536
G1 X139.570 Y119.691 E0.06536
G1 X138.017 Y121.082 E0.06536
G1 X136.336 Y122.308 E0.06525
G1 X134.536 Y123.361 E0.06537
G1 X132.671 Y124.215 E0.06432
G1 X131.293 Y124.709 E0.04590
G1 X129.278 Y125.242 E0.06535
G1 X127.253 Y125.566 E0.06432
G1 X125.157 Y125.689 E0.06583
G1 X123.092 Y125.601 E0.06479
G1 X121.029 Y125.304 E0.06536
G1 X119.006 Y124.801 E0.06537
G1 X117.044 Y124.098 E0.06535
G1 X115.162 Y123.200 E0.06537
G1 X113.381 Y122.118 E0.06536
G1 X111.717 Y120.861 E0.06536
G1 X110.214 Y119.470 E0.06422
G1 X109.228 Y118.389 E0.04589
G1 X107.961 Y116.733 E0.06536
G1 X106.882 Y114.989 E0.06431
G1 X105.958 Y113.088 E0.06628
G1 X105.250 Y111.162 E0.06433
G1 X104.731 Y109.143 E0.06536
G1 X104.417 Y107.082 E0.06536
G1 X104.311 Y105.000 E0.06535
G1 X104.417 Y102.918 E0.06538
G1 X104.730 Y100.858 E0.06535
G1 X105.250 Y98.839 E0.06537
G1 X105.958 Y96.913 E0.06432
G1 X106.882 Y95.012 E0.06627
G1 X107.961 Y93.267 E0.06434
G1 X109.228 Y91.611 E0.06536
G1 X110.214 Y90.530 E0.04589
G1 X111.717 Y89.139 E0.06420
G1 X113.380 Y87.883 E0.06536
G1 X115.162 Y86.800 E0.06536
G1 X117.043 Y85.902 E0.06536
G1 X119.006 Y85.199 E0.06536
G1 X121.029 Y84.696 E0.06536
G1 X123.092 Y84.399 E0.06537
G1 X125.160 Y84.311 E0.06489
G1 X127.256 Y84.434 E0.06582
G1 X129.311 Y84.765 E0.06526
G1 X131.328 Y85.302 E0.06546
G1 X133.245 Y86.024 E0.06423
G1 X135.112 Y86.950 E0.06534
G1 X136.363 Y87.710 E0.04590
G1 X138.020 Y88.920 E0.06432
G1 X139.593 Y90.332 E0.06628
G1 X140.976 Y91.852 E0.06445
G1 X142.218 Y93.527 E0.06536
G1 X143.284 Y95.314 E0.06524
G1 X144.166 Y97.203 E0.06537
G1 X144.853 Y99.171 E0.06536
G1 X145.339 Y101.199 E0.06538
G1 X145.618 Y103.264 E0.06535
G1 X145.689 Y105.311 E0.06422
G1 X145.549 Y107.424 E0.06639
G1 X145.207 Y109.446 E0.06432
G1 X144.842 Y110.864 E0.04590
G1 X144.171 Y112.774 E0.06348
G1 F8640
G1 X143.282 Y114.689 E-0.48736
G1 X142.678 Y115.703 E-0.27264
G1 E-0.04000 F2100.00000
G1 Z0.800 F10800.000
G1 X141.307 Y111.598
G1 Z0.200
G1 E0.80000 F2100.00000
G1 F1200
G1 X141.116 Y112.064 E0.01579
G1 X140.689 Y112.966 E0.03128
G1 X140.314 Y113.667 E0.02492
G1 X139.797 Y114.520 E0.03129
G1 X139.353 Y115.179 E0.02491
G1 X138.752 Y115.975 E0.03129
G1 X138.243 Y116.586 E0.02492
G1 X137.564 Y117.317 E0.03129
G1 X136.996 Y117.873 E0.02491
G1 X136.246 Y118.531 E0.03129
G1 X135.625 Y119.026 E0.02491
G1 X134.811 Y119.604 E0.03129
G1 X134.142 Y120.035 E0.02496
G1 X133.451 Y120.431 E0.02496
G1 X132.562 Y120.888 E0.03136
G1 X132.024 Y121.133 E0.01854
G1 X131.284 Y121.433 E0.02504
G1 X130.340 Y121.765 E0.03136
G1 X129.774 Y121.935 E0.01854
G1 X129.000 Y122.133 E0.02504
G1 X128.023 Y122.334 E0.03129
G1 X127.237 Y122.451 E0.02491
G1 X126.244 Y122.551 E0.03129
G1 X125.450 Y122.588 E0.02492
G1 X124.452 Y122.586 E0.03129
G1 X123.659 Y122.542 E0.02492
G1 X122.666 Y122.439 E0.03129
G1 X121.881 Y122.315 E0.02491
G1 X120.905 Y122.111 E0.03129
G1 X120.136 Y121.908 E0.02492
G1 X119.186 Y121.606 E0.03129
G1 X118.442 Y121.326 E0.02491
G1 X117.525 Y120.927 E0.03134
G1 X116.993 Y120.667 E0.01858
G1 X116.291 Y120.287 E0.02502
G1 X115.438 Y119.769 E0.03129
G1 X114.781 Y119.322 E0.02492
G1 X113.986 Y118.720 E0.03129
G1 X113.377 Y118.208 E0.02492
G1 X112.648 Y117.528 E0.03129
G1 X112.094 Y116.958 E0.02492
G1 X111.438 Y116.206 E0.03129
G1 X110.945 Y115.583 E0.02492
G1 X110.368 Y114.769 E0.03129
G1 X109.941 Y114.099 E0.02492
G1 X109.451 Y113.230 E0.03129
G1 X109.092 Y112.516 E0.02503
G1 X108.848 Y111.977 E0.01855
G1 X108.480 Y111.048 E0.03135
G1 X108.221 Y110.293 E0.02503
G1 X108.052 Y109.726 E0.01855
G1 X107.813 Y108.755 E0.03136
G1 X107.659 Y107.975 E0.02491
G1 X107.520 Y106.987 E0.03128
G1 X107.446 Y106.196 E0.02491
G1 X107.409 Y105.199 E0.03128
G1 X107.416 Y104.403 E0.02496
G1 X107.463 Y103.608 E0.02496
G1 X107.568 Y102.616 E0.03128
G1 X107.695 Y101.831 E0.02491
G1 X107.901 Y100.855 E0.03128
G1 X108.107 Y100.087 E0.02492
G1 X108.412 Y99.135 E0.03135
G1 X108.619 Y98.581 E0.01855
G1 X108.928 Y97.845 E0.02503
G1 X109.359 Y96.943 E0.03135
G1 X109.639 Y96.421 E0.01855
G1 X110.045 Y95.734 E0.02503
G1 X110.593 Y94.900 E0.03129
G1 X111.065 Y94.261 E0.02492
G1 X111.696 Y93.487 E0.03129
G1 X112.229 Y92.899 E0.02492
G1 X112.936 Y92.194 E0.03129
G1 X113.526 Y91.662 E0.02492
G1 X114.301 Y91.033 E0.03129
G1 X114.942 Y90.564 E0.02492
G1 X115.777 Y90.017 E0.03129
G1 X116.466 Y89.614 E0.02502
G1 X116.989 Y89.336 E0.01858
G1 X117.891 Y88.906 E0.03134
G1 X118.625 Y88.601 E0.02492
G1 X119.565 Y88.267 E0.03128
G1 X120.326 Y88.038 E0.02492
G1 X121.295 Y87.801 E0.03129
G1 X122.076 Y87.650 E0.02492
G1 X123.064 Y87.513 E0.03129
G1 X123.859 Y87.442 E0.02503
G1 X124.450 Y87.414 E0.01856
G1 X125.450 Y87.412 E0.03135
G1 X126.248 Y87.449 E0.02503
G1 X126.837 Y87.501 E0.01855
G1 X127.828 Y87.635 E0.03135
G1 X128.609 Y87.779 E0.02492
G1 X129.580 Y88.013 E0.03129
G1 X130.342 Y88.235 E0.02492
G1 X131.284 Y88.567 E0.03128
G1 X132.020 Y88.865 E0.02492
G1 X132.922 Y89.291 E0.03129
G1 X133.626 Y89.664 E0.02496
G1 X134.310 Y90.071 E0.02496
G1 X135.142 Y90.621 E0.03129
G1 X135.780 Y91.095 E0.02492
G1 X136.552 Y91.727 E0.03129
G1 X137.139 Y92.264 E0.02491
G1 X137.842 Y92.971 E0.03129
G1 X138.371 Y93.564 E0.02491
G1 X138.999 Y94.339 E0.03129
G1 X139.465 Y94.983 E0.02492
G1 X140.011 Y95.818 E0.03129
G1 X140.409 Y96.506 E0.02491
G1 X140.868 Y97.394 E0.03135
G1 X141.115 Y97.932 E0.01856
G1 X141.418 Y98.671 E0.02503
G1 X141.752 Y99.613 E0.03134
G1 X141.923 Y100.180 E0.01857
G1 X142.124 Y100.952 E0.02503
G1 X142.326 Y101.929 E0.03129
G1 X142.447 Y102.715 E0.02492
G1 X142.549 Y103.708 E0.03129
G1 X142.589 Y104.501 E0.02492
G1 X142.589 Y105.499 E0.03128
G1 X142.549 Y106.296 E0.02502
G1 X142.495 Y106.886 E0.01857
G1 X142.359 Y107.876 E0.03134
G1 X142.212 Y108.657 E0.02492
G1 X141.977 Y109.627 E0.03129
G1 X141.751 Y110.389 E0.02492
G1 X141.330 Y111.543 E0.03852
G1 X141.679 Y111.686 F10800.000
G1 F1200
G1 X141.461 Y112.217 E0.01799
G1 X141.026 Y113.136 E0.03189
G1 X140.642 Y113.853 E0.02552
G1 X140.115 Y114.723 E0.03189
G1 X139.660 Y115.398 E0.02552
G1 X139.047 Y116.210 E0.03189
G1 X138.527 Y116.835 E0.02552
G1 X137.834 Y117.580 E0.03189
G1 X137.253 Y118.149 E0.02552
G1 X136.488 Y118.820 E0.03189
G1 X135.852 Y119.327 E0.02552
G1 X135.023 Y119.916 E0.03189
G1 X134.338 Y120.357 E0.02554
G1 X133.631 Y120.762 E0.02554
G1 X132.726 Y121.227 E0.03191
G1 X132.173 Y121.479 E0.01907
G1 X131.417 Y121.786 E0.02556
G1 X130.457 Y122.124 E0.03191
G1 X129.875 Y122.299 E0.01907
G1 X129.085 Y122.500 E0.02556
G1 X128.088 Y122.705 E0.03189
G1 X127.283 Y122.825 E0.02552
G1 X126.272 Y122.927 E0.03189
G1 X125.459 Y122.965 E0.02552
G1 X124.442 Y122.963 E0.03189
G1 X123.629 Y122.918 E0.02552
G1 X122.617 Y122.813 E0.03189
G1 X121.813 Y122.686 E0.02552
G1 X120.818 Y122.478 E0.03189
G1 X120.031 Y122.270 E0.02552
G1 X119.062 Y121.962 E0.03189
G1 X118.300 Y121.675 E0.02552
G1 X117.367 Y121.270 E0.03191
G1 X116.820 Y121.002 E0.01908
G1 X116.103 Y120.614 E0.02556
G1 X115.234 Y120.086 E0.03189
G1 X114.561 Y119.629 E0.02552
G1 X113.751 Y119.014 E0.03189
G1 X113.127 Y118.491 E0.02552
G1 X112.384 Y117.797 E0.03189
G1 X111.817 Y117.213 E0.02552
G1 X111.148 Y116.448 E0.03189
G1 X110.643 Y115.809 E0.02552
G1 X110.055 Y114.979 E0.03189
G1 X109.618 Y114.293 E0.02552
G1 X109.118 Y113.407 E0.03189
G1 X108.752 Y112.679 E0.02556
G1 X108.501 Y112.125 E0.01907
G1 X108.126 Y111.179 E0.03191
G1 X107.861 Y110.407 E0.02556
G1 X107.688 Y109.824 E0.01907
G1 X107.445 Y108.836 E0.03191
G1 X107.287 Y108.038 E0.02552
G1 X107.146 Y107.031 E0.03189
G1 X107.070 Y106.220 E0.02552
G1 X107.032 Y105.204 E0.03189
G1 X107.039 Y104.390 E0.02554
G1 X107.087 Y103.577 E0.02554
G1 X107.194 Y102.565 E0.03189
G1 X107.325 Y101.762 E0.02552
G1 X107.534 Y100.767 E0.03189
G1 X107.745 Y99.981 E0.02552
G1 X108.056 Y99.012 E0.03191
G1 X108.268 Y98.442 E0.01907
G1 X108.584 Y97.690 E0.02556
G1 X109.023 Y96.772 E0.03191
G1 X109.310 Y96.236 E0.01907
G1 X109.725 Y95.534 E0.02556
G1 X110.284 Y94.685 E0.03189
G1 X110.767 Y94.029 E0.02552
G1 X111.410 Y93.241 E0.03189
G1 X111.956 Y92.638 E0.02552
G1 X112.676 Y91.920 E0.03189
G1 X113.281 Y91.376 E0.02552
G1 X114.071 Y90.734 E0.03189
G1 X114.728 Y90.254 E0.02552
G1 X115.578 Y89.697 E0.03189
G1 X116.282 Y89.285 E0.02556
G1 X116.819 Y88.999 E0.01908
G1 X117.738 Y88.562 E0.03190
G1 X118.489 Y88.249 E0.02552
G1 X119.447 Y87.908 E0.03189
G1 X120.227 Y87.674 E0.02552
G1 X121.215 Y87.432 E0.03189
G1 X122.014 Y87.278 E0.02552
G1 X123.021 Y87.138 E0.03189
G1 X123.833 Y87.066 E0.02556
G1 X124.441 Y87.037 E0.01907
G1 X125.459 Y87.035 E0.03191
G1 X126.273 Y87.073 E0.02556
G1 X126.879 Y87.126 E0.01907
G1 X127.887 Y87.263 E0.03191
G1 X128.688 Y87.410 E0.02552
G1 X129.677 Y87.648 E0.03189
G1 X130.458 Y87.876 E0.02552
G1 X131.417 Y88.214 E0.03189
G1 X132.171 Y88.520 E0.02552
G1 X133.091 Y88.954 E0.03189
G1 X133.811 Y89.335 E0.02554
G1 X134.510 Y89.752 E0.02554
G1 X135.359 Y90.312 E0.03189
G1 X136.012 Y90.798 E0.02552
G1 X136.799 Y91.442 E0.03189
G1 X137.400 Y91.991 E0.02552
G1 X138.117 Y92.712 E0.03189
G1 X138.659 Y93.320 E0.02552
G1 X139.299 Y94.110 E0.03189
G1 X139.776 Y94.769 E0.02552
G1 X140.332 Y95.621 E0.03189
G1 X140.740 Y96.325 E0.02552
G1 X141.207 Y97.229 E0.03191
G1 X141.461 Y97.782 E0.01907
G1 X141.770 Y98.536 E0.02556
G1 X142.110 Y99.496 E0.03191
G1 X142.286 Y100.078 E0.01908
G1 X142.491 Y100.867 E0.02556
G1 X142.698 Y101.863 E0.03189
G1 X142.821 Y102.667 E0.02552
G1 X142.925 Y103.679 E0.03189
G1 X142.966 Y104.492 E0.02552
G1 X142.966 Y105.508 E0.03189
G1 X142.925 Y106.323 E0.02556
G1 X142.870 Y106.929 E0.01908
G1 X142.732 Y107.937 E0.03191
G1 X142.581 Y108.736 E0.02552
G1 X142.341 Y109.725 E0.03189
G1 X142.110 Y110.505 E0.02552
G1 X141.702 Y111.630 E0.03753
G1 X141.284 Y111.748 F10800.000
G1 F8640
G1 X141.461 Y112.217 E-0.14631
G1 X141.026 Y113.136 E-0.23481
G1 X140.642 Y113.853 E-0.18793
G1 X140.213 Y114.561 E-0.19094
G1 E-0.04000 F2100.00000
G1 Z0.800 F10800.000
G1 X141.133 Y98.274
G1 Z0.200
G1 E0.80000 F2100.00000
G1 F1200
G1 X132.052 Y89.193 E0.40614
G1 X131.135 Y88.814 E0.03138
G1 X141.187 Y98.866 E0.44960
G1 X141.482 Y99.699 E0.02794
G1 X130.305 Y88.522 E0.49993
G1 X129.542 Y88.296 E0.02518
G1 X141.704 Y100.458 E0.54399
G1 X141.881 Y101.174 E0.02331
G1 X128.830 Y88.123 E0.58373
G1 X128.152 Y87.982 E0.02193
G1 X142.022 Y101.852 E0.62038
G1 X142.127 Y102.496 E0.02063
G1 X127.509 Y87.877 E0.65387
G1 X126.887 Y87.793 E0.01986
G1 X142.203 Y103.110 E0.68509
